resources/svg/double-caret-left-circle-o.svg

<svg width="15" height="15" viewBox="0 0 15 15" fill="none" xmlns="http://www.w3.org/2000/svg">
<path d="M6.14645 9.85355L6.5 10.2071L7.20711 9.5L6.85355 9.14645L6.14645 9.85355ZM4.5 7.5L4.14645 7.14645L3.79289 7.5L4.14645 7.85355L4.5 7.5ZM6.85355 5.85355L7.20711 5.5L6.5 4.79289L6.14645 5.14645L6.85355 5.85355ZM9.14645 9.85355L9.5 10.2071L10.2071 9.5L9.85355 9.14645L9.14645 9.85355ZM7.5 7.5L7.14645 7.14645L6.79289 7.5L7.14645 7.85355L7.5 7.5ZM9.85355 5.85355L10.2071 5.5L9.5 4.79289L9.14645 5.14645L9.85355 5.85355ZM6.85355 9.14645L4.85355 7.14645L4.14645 7.85355L6.14645 9.85355L6.85355 9.14645ZM4.85355 7.85355L6.85355 5.85355L6.14645 5.14645L4.14645 7.14645L4.85355 7.85355ZM9.85355 9.14645L7.85355 7.14645L7.14645 7.85355L9.14645 9.85355L9.85355 9.14645ZM7.85355 7.85355L9.85355 5.85355L9.14645 5.14645L7.14645 7.14645L7.85355 7.85355ZM7.5 15C11.6421 15 15 11.6421 15 7.5H14C14 11.0899 11.0899 14 7.5 14V15ZM0 7.5C0 11.6421 3.35786 15 7.5 15V14C3.91015 14 1 11.0899 1 7.5H0ZM7.5 0C3.35786 0 0 3.35786 0 7.5H1C1 3.91015 3.91015 1 7.5 1V0ZM7.5 1C11.0899 1 14 3.91015 14 7.5H15C15 3.35786 11.6421 0 7.5 0V1Z" fill="black"/>
</svg>

<svg viewBox="0 0 15 15" fill="none" xmlns="http://www.w3.org/2000/svg" fill="currentColor"><path d="M6.146 9.854l.354.353.707-.707-.353-.354-.708.708zM4.5 7.5l-.354-.354-.353.354.353.354L4.5 7.5zm2.354-1.646l.353-.354-.707-.707-.354.353.708.708zm2.292 4l.354.353.707-.707-.353-.354-.708.708zM7.5 7.5l-.354-.354-.353.354.353.354L7.5 7.5zm2.354-1.646l.353-.354-.707-.707-.354.353.708.708zm-3 3.292l-2-2-.708.708 2 2 .708-.708zm-2-1.292l2-2-.708-.708-2 2 .708.708zm5 1.292l-2-2-.708.708 2 2 .708-.708zm-2-1.292l2-2-.708-.708-2 2 .708.708zM7.5 15A7.5 7.5 0 0015 7.5h-1A6.5 6.5 0 017.5 14v1zM0 7.5A7.5 7.5 0 007.5 15v-1A6.5 6.5 0 011 7.5H0zM7.5 0A7.5 7.5 0 000 7.5h1A6.5 6.5 0 017.5 1V0zm0 1A6.5 6.5 0 0114 7.5h1A7.5 7.5 0 007.5 0v1z" fill="currentColor"/></svg>
